svgs/soulmate_coffee_bakery.svg

<svg xmlns="http://www.w3.org/2000/svg" viewBox="0 0 192 192"><path d="M58.711 172.333c24.525-11.855 63.504-11.176 83.802 1.459 3.15 1.961 3.586 2.666 1.183 1.912-12.531-3.929-44.299-5.681-64.571-3.562-11.8 1.234-23.241 2.758-25.424 3.387s.071-.809 5.01-3.196Zm56.618-19.156c10.912-37.386 11.167-52.377 1.044-61.537-6.672-6.039-20.287-5.177-27.189 1.72-5.247 5.244-5.532 6.478-5.532 23.944 0 10.128.692 22.006 1.537 26.395 2.948 15.304-2.043 2.137-11.28-29.755-5.058-17.463-9.589-32.143-10.069-32.623-.481-.48-1.942-.213-3.247.594-1.577.974-2.016 4.897-1.308 11.673 1.079 10.319.894 10.096-3.767-4.532-.705-2.214-1.67-2.052-4.83.808-3.897 3.526-3.949 3.403-3.915-9.206.043-15.752 4.341-36.744 9.62-46.988 4.68-9.08 11.473-16.685 14.866-16.642 1.574.02 1.696.542.352 1.497-11.084 7.871-14.144 24.426-6.561 35.493 5.685 8.296 20.559 18.327 32.513 21.924 11.253 3.387 28.21 4.532 34.314 2.318 5.895-2.138 7.897 4.472 4.645 15.344-5.999 20.056-20.554 63.065-21.342 63.065-.479 0-.411-1.571.149-3.492Zm23.365-83.54c2.649-3.422 5.218-5.864 5.709-5.426.49.437-1.677 3.237-4.817 6.222l-5.708 5.426Z"/></svg>

<svg
    xmlns="http://www.w3.org/2000/svg"
    viewBox="0 0 192 192"
    id="vector">
    <path
        id="path"
        d="M 58.711 172.333 C 83.236 160.478 122.215 161.157 142.513 173.792 C 145.663 175.753 146.099 176.458 143.696 175.704 C 131.165 171.775 99.397 170.023 79.125 172.142 C 67.325 173.376 55.884 174.9 53.701 175.529 C 51.518 176.158 53.772 174.72 58.711 172.333 Z M 115.329 153.177 C 126.241 115.791 126.496 100.8 116.373 91.64 C 109.701 85.601 96.086 86.463 89.184 93.36 C 83.937 98.604 83.652 99.838 83.652 117.304 C 83.652 127.432 84.344 139.31 85.189 143.699 C 88.137 159.003 83.146 145.836 73.909 113.944 C 68.851 96.481 64.32 81.801 63.84 81.321 C 63.359 80.841 61.898 81.108 60.593 81.915 C 59.016 82.889 58.577 86.812 59.285 93.588 C 60.364 103.907 60.179 103.684 55.518 89.056 C 54.813 86.842 53.848 87.004 50.688 89.864 C 46.791 93.39 46.739 93.267 46.773 80.658 C 46.816 64.906 51.114 43.914 56.393 33.67 C 61.073 24.59 67.866 16.985 71.259 17.028 C 72.833 17.048 72.955 17.57 71.611 18.525 C 60.527 26.396 57.467 42.951 65.05 54.018 C 70.735 62.314 85.609 72.345 97.563 75.942 C 108.816 79.329 125.773 80.474 131.877 78.26 C 137.772 76.122 139.774 82.732 136.522 93.604 C 130.523 113.66 115.968 156.669 115.18 156.669 C 114.701 156.669 114.769 155.098 115.329 153.177 Z M 138.694 69.637 C 141.343 66.215 143.912 63.773 144.403 64.211 C 144.893 64.648 142.726 67.448 139.586 70.433 L 133.878 75.859 Z"
        fill="#000000"
        stroke-width="12"/>
</svg>
